src/svgs/code-search.svg

<?xml version="1.0" encoding="UTF-8" standalone="no"?>
<svg
   width="32"
   height="32"
   version="1.1"
   id="svg10"
   xmlns="http://www.w3.org/2000/svg"
   xmlns:svg="http://www.w3.org/2000/svg">
  <defs
     id="defs14" />
  <path
     id="path2"
     d="M 18.380859 5.2246094 C 17.009859 5.2246094 15.667625 5.6259062 14.515625 6.3789062 A 7.18 7.18 0 0 0 11.886719 9.4707031 A 7.282 7.282 0 0 0 11.339844 13.511719 A 7.241 7.241 0 0 0 12.701172 16.744141 L 5.640625 24.779297 L 6.1015625 25.185547 L 6.0859375 25.203125 L 7.0527344 26.076172 L 7.0800781 26.044922 L 7.9003906 26.767578 L 14.949219 18.748047 A 7.08 7.08 0 0 0 17.052734 19.515625 A 7.038 7.038 0 0 0 20.402344 19.345703 A 7.1 7.1 0 0 0 23.304688 17.642578 A 7.214 7.214 0 0 0 25.113281 14.783203 A 7.285 7.285 0 0 0 24.177734 8.2539062 A 7.143 7.143 0 0 0 21.640625 6.0332031 A 7.05 7.05 0 0 0 18.380859 5.234375 L 18.380859 5.2246094 z M 18.402344 7.59375 A 4.802 4.802 0 0 1 20.251953 7.9648438 C 21.134953 8.3328438 21.888922 8.9539063 22.419922 9.7539062 A 4.882 4.882 0 0 1 21.818359 15.890625 A 4.815 4.815 0 0 1 18.404297 17.314453 C 17.448297 17.314453 16.514703 17.028141 15.720703 16.494141 A 4.854 4.854 0 0 1 13.941406 14.314453 A 4.888 4.888 0 0 1 14.988281 9.0175781 A 4.802 4.802 0 0 1 18.402344 7.59375 z " />
</svg>

<?xml version="1.0" encoding="UTF-8" standalone="no"?>
<svg
   width="32"
   height="32"
   version="1.1"
   id="svg10"
   xmlns="http://www.w3.org/2000/svg"
   xmlns:svg="http://www.w3.org/2000/svg">
  <defs
     id="defs14" />
  <g
     class="layer"
     id="g8">
    <path
       d="M18.381 5.225c-1.371 0-2.714.4-3.866 1.153a7.18 7.18 0 00-2.628 3.093 7.282 7.282 0 00-.547 4.04 7.241 7.241 0 001.709 3.694l-6.963 7.999.966.873 6.946-7.964a7.08 7.08 0 003.055 1.402 7.038 7.038 0 003.35-.17 7.1 7.1 0 002.901-1.703 7.214 7.214 0 001.809-2.858 7.285 7.285 0 00-.936-6.53 7.143 7.143 0 00-2.536-2.22 7.05 7.05 0 00-3.26-.8v-.009zm0 13.098a5.775 5.775 0 01-3.235-.993A5.88 5.88 0 0113 14.685a5.96 5.96 0 01-.331-3.406 5.916 5.916 0 011.594-3.018 5.803 5.803 0 012.982-1.613 5.76 5.76 0 013.365.336 5.84 5.84 0 012.614 2.17c.64.97.982 2.11.982 3.275a5.93 5.93 0 01-1.706 4.168 5.79 5.79 0 01-4.119 1.726z"
       id="path2" />
    <path
       d="M18.404 6.514c-1.138 0-2.251.33-3.207.95a5.93 5.93 0 00-2.179 2.55 5.974 5.974 0 00.963 6.379l-5.774 6.595.801.72 5.76-6.566a5.869 5.869 0 007.717-.389 5.944 5.944 0 001.5-2.357 5.975 5.975 0 00-.775-5.384 5.914 5.914 0 00-2.103-1.832 5.874 5.874 0 00-2.703-.659v-.007zm0 10.8c-.956 0-1.89-.285-2.684-.819a4.854 4.854 0 01-1.779-2.18 4.888 4.888 0 011.047-5.297 4.802 4.802 0 015.264-1.054c.883.368 1.637.99 2.168 1.79a4.882 4.882 0 01-.601 6.137 4.815 4.815 0 01-3.415 1.423z"
       id="path4" />
    <path
       stroke-dasharray="null"
       stroke-linecap="null"
       stroke-linejoin="null"
       stroke-width="null"
       d="M5.64 24.78l7.88-8.967 2.261 1.988-7.88 8.967z"
       id="path6" />
  </g>
</svg>
